X:15
T:John of Paris
C:from the Knots of May repertoire
N:Shoosmith MS
I:abc2nwc
M:6/8
L:1/8
K:G
d2c|B2B BAB|d2B BAB|c2e g2e|d2B BAB|
c2A AGA|B2G G2B|A2B A2B|A3d2c|
B2B BAB|d2B BAB|c2e g2e|d2B BAB|
c2A AGA|B2G G2F|Eed cBA|B2G G2B||
d2c Bcd|e2f g2a|b2a gfe|d2c Bcd|
e2e ecA|d2d dBG|c2A B2G|A2F D2c|
B2B BAB|d2B BAB|c2e g2e|d2B BAB|
c2A AGA|B2G G2F|Eed cBA|B2G Gdc|]


